!!!!SEGMENT: pl-wtm--r-2550--001-001_hertz-michal--szklana-gora-andante-religioso.krn
!!!cenid: 18xx:3120
!!!COM: Hertz, Michał
!!!COM-rismID: pe41023359
!!!CDT: 1844/09/28-~1918
!!!CNT: Polish
!!!OPR: Szklana góra
!!!OTL: Andante religioso
!!!OMV: 001
!!!PDT:
!!!AGN:
!!!YEC: Copyright 2022 Narodowy Instytut Fryderyka Chopina (https://polishscores.org)
!!!YEM: License CC-BY-4.0 (https://creativecommons.org/licenses/by/4.0)
!!!SMS-siglum: PL-Wtm
!!!SMS-shelfmark: R 2550
!!!SMS-shelfwork: 001-001 M
!!!SMS-variant:
!!!SMS-altvar:
!!!NIFC-rismSourceID: 1001083932
!!!NIFC-rismChildID: 1001083932
!!!NIFC-islandoraID:
!!!URL-pdf-islandora:
!!!URL-scan:
!!!IIIF:
!!!ONB-nifc: UWAGA: w zbiorze: 1. Andante religioso, 2. Zbrojny krakowiak
!!!OMD: Andante religioso
!!!AIN: 1 piano
!!!key: D
**kern	**kern	**dynam
*part1	*part1	*
*staff2	*staff1	*
*ICklav	*ICklav	*
*Ipiano	*Ipiano	*
*I"	*I"	*
*clefF4	*clefG2	*
*k[f#c#]	*k[f#c#]	*
*D:	*D:	*
*M4/4	*M4/4	*
*met(c)	*met(c)	*
=1	=1	=1
*^	*^	*
*	*	*2\right	*	*
!	!	!	!	!LO:DY:rj
8r	1D 1DD	(2ddd 2dd\	1aa 1ff#	pp
(<16D/LL	.	.	.	.
16F#/JJ	.	.	.	.
16A/LL	.	.	.	.
16d/	.	.	.	.
16f#/	.	.	.	.
16a/JJ)	.	.	.	.
*rep	*	*	*	*
8r	.	4.ccc# 4.cc#\	.	.
(<16D/LL	.	.	.	.
16F#/JJ	.	.	.	.
16A/LL	.	.	.	.
16d/	.	.	.	.
16f#/	.	8bb 8b\	.	.
16a/JJ)	.	.	.	.
*Xrep	*	*	*	*
=2	=2	=2	=2	=2
8rc	1E 1EE	2bb 2b\	1gg 1cc#	.
(<16E/LL	.	.	.	.
16G/JJ	.	.	.	.
16A/LL	.	.	.	.
16c#/	.	.	.	.
16e/	.	.	.	.
16g/JJ)	.	.	.	.
*rep	*	*	*	*
8r	.	2aa 2a\)	.	.
(<16E/LL	.	.	.	.
16G/JJ	.	.	.	.
16A/LL	.	.	.	.
16c#/	.	.	.	.
16e/	.	.	.	.
16g/JJ)	.	.	.	.
*Xrep	*	*	*	*
=3	=3	=3	=3	=3
8rAA	1F# 1FF#	(4.aa 4.a\	1dd	.
(<16D/LL	.	.	.	.
16F#/JJ	.	.	.	<
16A/LL	.	.	.	.
16d/	.	.	.	.
16f#/	.	8bb 8b\	.	.
16a/JJ)	.	.	.	.
*rep	*	*	*	*
8r	.	8ccc#L 8cc#\	.	.
(<16D/LL	.	8ddd 8dd\	.	.
16F#/JJ	.	.	.	.
16A/LL	.	8eee 8ee\	.	.
16d/	.	.	.	.
16f#/	.	8fff#J 8ff#\)	.	.
16a/JJ)	.	.	.	.
*Xrep	*	*	*	*
=4	=4	=4	=4	=4
*	*	*	*^	*
8r	1E 1EE	(2aaa/	1eee 1bb	2aa\	.
(<16E/LL	.	.	.	.	.
16G/JJ	.	.	.	.	.
16B/LL	.	.	.	.	[
16e/	.	.	.	.	.
16g/	.	.	.	.	.
16b/JJ)	.	.	.	.	.
*rep	*	*	*	*	*
8r	.	2ggg 2gg/)	.	2gg\	.
(<16E/LL	.	.	.	.	.
16G/JJ	.	.	.	.	.
16B/LL	.	.	.	.	.
16e/	.	.	.	.	.
16g/	.	.	.	.	.
16b/JJ)	.	.	.	.	.
*Xrep	*	*	*	*	*
*	*	*v	*v	*v	*
!!LO:LB:g=original
=5	=5	=5	=5
8r	(>4..F# 4..FF#\	(4..fff# 4..ccc# 4..aa#X 4..ff#\	f
(<16F#/LL	.	.	.
16A#X/JJ	.	.	.
16c#/LL	.	.	.
16f#/JJ)	.	.	.
8re	.	.	.
.	16A#X 16AA#X\	16eee 16ccc# 16ff# 16ee\	.
*2\right	*	*	*
8r	2B 2BB\)	2ddd 2bb 2ff# 2dd\)	.
(<16F#/LL	.	.	.
16B/JJ)	.	.	.
(<16d/LL	.	.	.
16f#/JJ)	.	.	.
8r	.	.	.
=6	=6	=6	=6
8r	(>4..C# 4..CC#\	(4..ccc# 4..gg#X 4..ee 4..cc#\	.
(16C#/LL	.	.	.
16E#X/JJ	.	.	.
16G/LL	.	.	.
16c#/JJ)	.	.	.
8r	.	.	.
.	16E#X 16EE#X\	16bb 16gg# 16cc# 16b\	.
8r	2F# 2FF#\)	2aa 2ff# 2cc# 2a\)	.
(<16F#/LL	.	.	.
16A/JJ)	.	.	.
(<16c#/LL	.	.	.
16f#/JJ)	.	.	.
8r	.	.	.
=7	=7	=7	=7
16r	(>4..E 4..EE\	4aa 4b 4a\	.
(<16E/LL	.	.	.
16G/	.	.	.
16B/JJ	.	.	.
8e/)	.	8.ggL 8.ee 8.b 8.g\	.
8re	.	.	.
.	16F# 16FF#\	16ff#Jk 16dd 16a 16f#\	.
2ryy	4G 4GG\)	4ff# 4b 4f#\	.
.	8.AL 8.AA\	8.cc#L 8.g\	.
.	16AAJk 16AAA\	16eeJk 16cc# 16g 16e\	.
=8	=8	=8	=8
[2D [<2DD\	8.r	[2dd [<2a [2f# [2d\	.
.	(>16FF#/	.	.
.	16AA/LL	.	.
.	16D/	.	.
.	16F#/	.	.
.	16A/JJ	.	.
8D] 8DD\]	8d/)	8dd] 8a] 8f#] 8d\]	.
8r	4.ryy	8r	.
4r	.	4r	.
*v	*v	*	*
==	==	==
*-	*-	*-
!!!system-decoration: {(s1,s2)}
!!!RDF**kern: > = above
!!!RDF**kern: < = below
!!!ENC: Filip Voros
!!!END: 2021-11-03
!!!ENC: Andrzej Kubiczek
!!!END: 2021-11-05
